X:1
T:Title
%%score { ( 1 3 ) | ( 2 4 ) }
L:1/8
Q:1/4=100
M:4/4
K:Ab
V:1 treble nm="Grand Piano"
V:3 treble 
V:2 bass 
V:4 bass 
V:1
 [CE]3 [_CF] [=CE]2 [CA]2 | [Ec]4 [EA]4 | F2 A2 G2 A2 | [CE]8 | D3 C D2 G2 | B4 G4 | E2 F2 E2 D2 | %7
w: Edward~Mauer * * *|||||||
 C8 | [CE]3 [_CF] [=CE]2 [CA]2 | c4 z4 | d2 c2 B2 A2 | F8 | B2 [DB]2 A2 F2 | E4 A4 | G2 G2 F2 G2 | %15
w: ||||||||
 [CA]8 | [Ec]2 [Ec]2 [EB]2 [=EA]2 | [FA]4 [DF]4 | [FA]2 [FA]2 [EG]2 [DF]2 | [CE]8 | E2 E2 A2 c2 | %21
w: ||||||
 z4 [Fd]4 | c2 [=Dc]2 [_DB]2 [DG]2 | [CA]8 |] %24
w: |||
V:2
 [A,,E,]3 [A,,=D,] [A,,E,]2 [A,,E,]2 | [A,,A,]4 [C,A,]4 | [D,A,D]2 [D,F,D]2 [D,=E,D]2 [D,F,D]2 | %3
 [A,,A,]8 | [E,G,B,]3 [E,_G,=A,] [E,=G,B,]2 [E,B,D]2 | [E,DE]4 [E,B,D]4 | %6
 [E,G,D]2 [E,G,D]2 [E,G,D]2 [E,G,B,]2 | [A,,A,]8 | [A,,E,]3 [A,,=D,] [A,,E,]2 [A,,A,]2 | A2 z2 z4 | %10
 [A,F]2[K:bass] [A,E]2 [=E,G,D]2 [F,A,C]2 | [D,A,D]8 | [D,F,D]2 [B,,F,]2 [C,E,C]2 [=D,A,_C]2 | %13
 [E,A,C]4 [F,A,C]4 | [E,B,D]2 [E,B,D]2 [E,A,D]2 [E,B,D]2 | [A,,A,]8 | %16
 [A,,A,]2 [A,,A,]2 [B,,G,]2 [C,A,]2 | [D,A,]4 [D,A,]4 | [D,A,]2 [D,F,]2 [D,G,]2 [D,A,]2 | %19
 [A,,A,]8 | [A,C]2 [A,C]2 [A,CE]2 [A,E_G]2 | z4[K:bass] D2 z2 | %22
 [F,=A,E]2 [B,,_A,]2 [E,G,]2 [E,B,]2 | [A,,A,]8 |] %24
V:3
 x8 | x8 | x8 | x8 | x8 | x8 | x8 | x8 | x8 | z2 G2 e4 | x8 | x8 | x8 | x8 | x8 | x8 | x8 | x8 | %18
 x8 | x8 | x8 | e4 z2 A,2 | x8 | x8 |] %24
V:4
 x8 | x8 | x8 | x8 | x8 | x8 | x8 | x8 | x8 | A,4 [A,C_G]4 | x2[K:bass] x6 | x8 | x8 | x8 | x8 | %15
 x8 | x8 | x8 | x8 | x8 | x8 | [A,C_G]4[K:bass] D,4 | x8 | x8 |] %24

